inst/assets/svg/wi-meteor.svg

<?xml version="1.0" encoding="UTF-8"?>
<svg xmlns="http://www.w3.org/2000/svg" xmlns:xlink="http://www.w3.org/1999/xlink" width="30pt" height="30pt" viewBox="0 0 30 30" version="1.1">
<g id="surface301">
<path style=" stroke:none;fill-rule:nonzero;fill:rgb(0%,0%,0%);fill-opacity:1;" d="M 7.089844 19.390625 C 7.089844 19.261719 7.089844 19.160156 7.101563 19.101563 L 7.101563 19.019531 C 7.101563 19 7.101563 18.980469 7.101563 18.960938 C 7.101563 18.941406 7.101563 18.929688 7.101563 18.910156 C 7.101563 18.890625 7.101563 18.878906 7.101563 18.859375 C 7.101563 18.839844 7.101563 18.828125 7.101563 18.820313 L 7.101563 18.800781 C 7.101563 18.769531 7.109375 18.730469 7.121094 18.679688 C 7.128906 18.628906 7.140625 18.601563 7.140625 18.589844 L 7.140625 18.558594 C 7.140625 18.550781 7.140625 18.53125 7.140625 18.511719 C 7.140625 18.488281 7.140625 18.480469 7.140625 18.46875 L 7.21875 18.101563 C 7.21875 18.089844 7.21875 18.089844 7.230469 18.078125 L 7.230469 18.058594 L 7.269531 17.921875 C 7.28125 17.910156 7.28125 17.910156 7.28125 17.898438 C 7.289063 17.890625 7.289063 17.878906 7.289063 17.871094 L 7.289063 17.839844 C 7.328125 17.71875 7.359375 17.621094 7.390625 17.558594 C 7.390625 17.550781 7.398438 17.539063 7.410156 17.53125 C 7.421875 17.519531 7.429688 17.46875 7.460938 17.378906 C 7.628906 17 7.839844 16.640625 8.089844 16.300781 L 8.148438 16.230469 C 8.160156 16.21875 8.171875 16.210938 8.179688 16.191406 C 8.191406 16.171875 8.199219 16.160156 8.210938 16.148438 C 8.21875 16.140625 8.238281 16.121094 8.28125 16.089844 C 8.289063 16.070313 8.300781 16.050781 8.320313 16.03125 C 8.339844 16.011719 8.351563 15.988281 8.359375 15.96875 C 8.398438 15.949219 8.421875 15.921875 8.429688 15.898438 C 8.441406 15.890625 8.460938 15.878906 8.5 15.839844 L 8.570313 15.769531 L 16.171875 7.441406 L 15.789063 9.640625 L 22.609375 2.351563 L 18.429688 10.488281 L 22.609375 7.328125 L 18.820313 14.929688 L 21.53125 13.058594 L 16.851563 21.390625 C 16.851563 21.398438 16.839844 21.410156 16.828125 21.429688 C 16.820313 21.449219 16.808594 21.46875 16.800781 21.480469 C 16.789063 21.488281 16.789063 21.5 16.78125 21.519531 C 16.769531 21.539063 16.769531 21.550781 16.761719 21.570313 C 16.75 21.578125 16.75 21.589844 16.738281 21.621094 C 16.730469 21.640625 16.71875 21.660156 16.71875 21.671875 C 16.289063 22.511719 15.671875 23.179688 14.859375 23.691406 C 14.050781 24.199219 13.160156 24.449219 12.191406 24.449219 C 11.269531 24.449219 10.421875 24.21875 9.640625 23.769531 C 8.859375 23.308594 8.238281 22.699219 7.78125 21.910156 C 7.320313 21.121094 7.089844 20.308594 7.089844 19.390625 Z M 8.289063 19.390625 C 8.289063 20.46875 8.671875 21.378906 9.429688 22.140625 C 10.191406 22.898438 11.109375 23.28125 12.179688 23.28125 C 13 23.28125 13.738281 23.039063 14.398438 22.570313 C 15.058594 22.101563 15.53125 21.480469 15.808594 20.730469 C 15.980469 20.300781 16.058594 19.859375 16.058594 19.390625 C 16.058594 18.320313 15.679688 17.398438 14.929688 16.640625 C 14.171875 15.878906 13.261719 15.511719 12.179688 15.511719 C 11.179688 15.511719 10.308594 15.839844 9.578125 16.511719 C 9.171875 16.871094 8.859375 17.289063 8.628906 17.789063 C 8.398438 18.300781 8.289063 18.828125 8.289063 19.390625 Z M 8.289063 19.390625 "/>
</g>
</svg>

<?xml version="1.0" encoding="utf-8"?>
<!-- Generator: Adobe Illustrator 22.0.1, SVG Export Plug-In . SVG Version: 6.00 Build 0)  -->
<svg version="1.1" id="Layer_1" xmlns="http://www.w3.org/2000/svg" xmlns:xlink="http://www.w3.org/1999/xlink" x="0px" y="0px"
	 viewBox="0 0 30 30" style="enable-background:new 0 0 30 30;" xml:space="preserve">
<path d="M7.09,19.39c0-0.13,0-0.23,0.01-0.29v-0.08c0-0.02,0-0.04,0-0.06c0-0.02,0-0.03,0-0.05s0-0.03,0-0.05c0-0.02,0-0.03,0-0.04
	v-0.02c0-0.03,0.01-0.07,0.02-0.12c0.01-0.05,0.02-0.08,0.02-0.09v-0.03c0-0.01,0-0.03,0-0.05c0-0.02,0-0.03,0-0.04l0.08-0.37
	c0-0.01,0-0.01,0.01-0.02v-0.02l0.04-0.14c0.01-0.01,0.01-0.01,0.01-0.02c0.01-0.01,0.01-0.02,0.01-0.03v-0.03
	c0.04-0.12,0.07-0.22,0.1-0.28c0-0.01,0.01-0.02,0.02-0.03c0.01-0.01,0.02-0.06,0.05-0.15c0.17-0.38,0.38-0.74,0.63-1.08l0.06-0.07
	c0.01-0.01,0.02-0.02,0.03-0.04c0.01-0.02,0.02-0.03,0.03-0.04c0.01-0.01,0.03-0.03,0.07-0.06c0.01-0.02,0.02-0.04,0.04-0.06
	c0.02-0.02,0.03-0.04,0.04-0.06c0.04-0.02,0.06-0.05,0.07-0.07c0.01-0.01,0.03-0.02,0.07-0.06l0.07-0.07l7.6-8.33l-0.38,2.2
	l6.82-7.29l-4.18,8.14l4.18-3.16l-3.79,7.6l2.71-1.87l-4.68,8.33c0,0.01-0.01,0.02-0.02,0.04s-0.02,0.04-0.03,0.05
	c-0.01,0.01-0.01,0.02-0.02,0.04c-0.01,0.02-0.01,0.03-0.02,0.05c-0.01,0.01-0.01,0.02-0.02,0.05c-0.01,0.02-0.02,0.04-0.02,0.05
	c-0.43,0.84-1.05,1.51-1.86,2.02c-0.81,0.51-1.7,0.76-2.67,0.76c-0.92,0-1.77-0.23-2.55-0.68c-0.78-0.46-1.4-1.07-1.86-1.86
	S7.09,20.31,7.09,19.39z M8.29,19.39c0,1.08,0.38,1.99,1.14,2.75c0.76,0.76,1.68,1.14,2.75,1.14c0.82,0,1.56-0.24,2.22-0.71
	c0.66-0.47,1.13-1.09,1.41-1.84c0.17-0.43,0.25-0.87,0.25-1.34c0-1.07-0.38-1.99-1.13-2.75c-0.76-0.76-1.67-1.13-2.75-1.13
	c-1,0-1.87,0.33-2.6,1c-0.41,0.36-0.72,0.78-0.95,1.28C8.4,18.3,8.29,18.83,8.29,19.39z"/>
</svg>
